X:1
T:Barbara Allen
M:6/8
L:1/8
K:Eb
 E| E/2G/2 B2- B2 c| G/2G/2 E4 B| c2 e c2 B| G B4 B| c/2c/2 G4 E| B2 B B,2 G/2G/2|\
 G2 F F2 B,| C/2 E/2- E2- E2||
